X:1
T:THE DYING SWAN.
T:THE DYING SWAN.
T:(Romance Poetique.)
T:L. M. Gottschalk.
T:Copyrgith 1870 by Kunkel Brothers
T:Copyrgith 1870 by Kunkel Brothers
T:Copyrgith 1870 by Kunkel Brothers
T:Copyrgith 1870 by Kunkel Brothers
T:Copyrgith 1870 by Kunkel Brothers
T:Copyrgith 1870 by Kunkel Brothers
C:L. M. Gottschalk.
Z:Copyrgith 1870 by Kunkel Brothers
%%score ( 1 2 ) { ( 3 6 7 ) | ( 4 5 ) }
L:1/8
Q:1/4=90
M:4/4
K:Bb
V:1 treble nm="Piano"
V:2 treble 
V:3 treble nm="Piano"
V:6 treble 
V:7 treble 
V:4 treble 
V:5 treble 
V:1
"^Andante" z8 | z8 | z8 | z8 | z8 | z8 | z8 | z8 | z8 | z8 | z8 | z8 | z8 | z8 | z8 | z8 | z8 | %17
 z8 | z8 | z8 | z8 | z8 | z8 | z4 ||[K:G][M:3/4] z6 | z6 | z6 | z6 | z6 | z6 | z6 | z6 | z6 | z6 | %34
 z6 | z6 | z6 | z6 | z6 ||[K:Bb][M:4/4] z8 | z8 | z8 | z8 | z8 | z8 | z8 | z8 | %47
"^Ossia."!mf! z"^scintillante.""_rapido."!8va(! g'/8"^As played by the Author."_a'/8=a'/8b'/8c''/8b'/8g'/8e'/8 .g''!8va)! z z!8va(! g'/8_a'/8=a'/8b'/8c''/8b'/8f'/8d'/8 .f''!8va)! z | %48
 z!8va(! (7:4:7e'/4=e'/4f'/4^f'/4g'/4_e'/4c'/4 .e''!8va)! z z!8va(! (9:8:9d'/8_e'/8=e'/8=f'/8^f'/8g'/8f'/8d'/8a/8 .d''!8va)! z | %49
 z8 | z8 || %51
 z"^scintillante.""_rapido."!8va(! g'/8_a'/8=a'/8b'/8c''/8b'/8g'/8e'/8 .g''!8va)! z z!8va(! g'/8_a'/8=a'/8b'/8c''/8b'/8f'/8d'/8 .f''!8va)! z | %52
 z!8va(! (7:4:7e'/4=e'/4f'/4^f'/4g'/4_e'/4c'/4 .e''!8va)! z z!8va(! (9:8:9d'/8_e'/8=e'/8=f'/8^f'/8g'/8f'/8d'/8a/8 .d''!8va)! z | %53
 z8 | z4 ||[K:G][M:3/4] z6 | z6 | z6 | z6 | z6 | z6 | z6 | z6 | z6 | z6 | z6 | z6 | z6 | z6 | z6 | %70
 z6 | z6 | z6 | z6 |] %74
V:2
 x8 | x8 | x8 | x8 | x8 | x8 | x8 | x8 | x8 | x8 | x8 | x8 | x8 | x8 | x8 | x8 | x8 | x8 | x8 | %19
 x8 | x8 | x8 | x8 | x4 ||[K:G][M:3/4] x6 | x6 | x6 | x6 | x6 | x6 | x6 | x6 | x6 | x6 | x6 | x6 | %36
 x6 | x6 | x6 ||[K:Bb][M:4/4] x8 | x8 | x8 | x8 | x8 | x8 | x8 | x8 | [G,B,EG]4 [F,B,DF]4 | %48
 [E,G,CE]4 [^F,=A,D]4 | x8 | x8 || [G,B,EG]4 [F,B,DF]4 | [E,G,CE]4 [^F,=A,D]4 | x8 | x4 || %55
[K:G][M:3/4] x6 | x6 | x6 | x6 | x6 | x6 | x6 | x6 | x6 | x6 | x6 | x6 | x6 | x6 | x6 | x6 | x6 | %72
 x6 | x6 |] %74
V:3
!p! !arpeggio![bd'g'b']4 !arpeggio![ac'e'a']4 | !arpeggio!!fermata![d^fad']4- [dfad']2 z2 | %2
"_Ben cantanto" x8 | D4 !>!E7/2 E/ | x8 | x8 | %6
!pp!!8va(! !arpeggio![d'^f'a'd'']4!<(! !arpeggio![d'g'b'd'']2 !arpeggio![d'=e'g'b'f'']2!<)! | %7
 !arpeggio![d'^f'a'd'']4- [d'f'a'd'']2 z2!8va)! |!p! x2"_cantabile e doloroso." .[DG]2 x2 .[E^F]2 | %9
 x2 .[B,G]2 x2 .[B,EG]2 |!f! x2 .[EG]2 x2 .[D^F]2 |"_legato." x2!pp! [dd']2 [ec']2 [^fa]2 | %12
 x2 .[DG]2 x2 .[E^F]2 | x2 .[B,G]2 x2 .[B,EG]2 |!f! x2 .[EG]2 x2 .[D^F]2 | %15
!p! x2 !arpeggio![dgbd']2 !arpeggio![gbd'g']2 z2 |"^Sostenuto." z2 [Beg]2 z2 [Bdf]2 | %17
 z2 [Gce]2 z2 [^FAd]2 | z [=Fd][Fd][Ge] [Fd][Ec][DB][CA] | [DB] [DB]2 [CA] [B,G]2 [B,G] z | %20
 z2 [Beg]2 z2 [Bdf]2 | z2 [Gce]2 z2 [^FAd]2 |[K:bass] z [=F,D][F,D][G,E] [F,D][E,C][D,B,][C,A,] | %23
 [D,B,] [D,B,]2 !fermata![C,A,] || %24
[K:G][M:3/4][K:treble]"^Lento con expressione."!8va(! !arpeggio![bd'g'b']2 !arpeggio![gbd'g']2 !arpeggio![eg^ae']2!8va)! | %25
 !arpeggio![dgbd']7/2 [ee']/ [dd']2 | %26
!8va(! !arpeggio![bd'g'b']2 !arpeggio![gbd'g']2 !arpeggio![eg^ae']2!8va)! | %27
 !arpeggio![dgbd']7/2 [ee']/ [dd']2 | (3Bc^c{de} (3dcd (3!tenuto!.b!tenuto!.a!tenuto!.g | %29
{fga} !^!g4 f2 | (3z [FA][GB] (3[Ac][^GB][Ac] [ce]/[ce][Bd]/ | %31
 [^GB]2 (3z!8va(! .[dd'].[ee'] (3.[ff'].[gg'].[aa'] | %32
 !arpeggio![bd'g'b']2 !arpeggio![gbd'g']2 !arpeggio![eg^ae']2!8va)! | %33
 !arpeggio![dgbd']7/2 [ee']/ [dd']2 | %34
!8va(! !arpeggio![be'g'b']2 !arpeggio![gbe'g']2 !arpeggio![egbe']2!8va)! | %35
 !arpeggio![^dgb^d']7/2 [ee']/ [dd']2 | %36
!p! [=dfa=d']2!8va(! (3:2:2(([ff']2 [aa'])) (3:2:2[c'c'']2 [_e'_e''] | %37
"_poco rall:" (3:2:2(!>![d'd'']2 [g'g''])!8va)! z4 |!8va(! (3:2:2(!>![aa']2 !>![d'd'']) z4!8va)! || %39
[K:Bb][M:4/4]!p!"^Tempo Primo." x2"_Ben cantando." .[DG]2 x2 .[E^F]2 | x2 .[gbg']2 x2 .[gbg']2 | %41
!f! x2 .[EG]2 x2 .[D^F]2 |"_legato." x2!p! [dd']2 [ec']2 [^fa]2 |!p! x2 .[DG]2 x2 .[E^F]2 | %44
 x2 .[gbg']2 x2 .[gbg']2 |!f! x2 .[EG]2 x2 .[D^F]2 | %46
!p! x2 !arpeggio!.[dgbd']2 !arpeggio!.[gbd'g']2 z2 | z2 [be'g'b']2 z2 [bd'f'b']2 | %48
 x2 [gc'e'g']2 x2 [ad'^f'a']2 |"_poco cresc:" z [d=fd'][dfd'][ege'] [dfd'][cec'][Bdb][Aca] | %50
 [Bdb] [Bdb]2 [Aca] [GBg]4 ||!f! z2 [be'g'b']2 z2 [bd'f'b']2 | x2 [gc'e'g']2 x2 [ad'^f'a']2 | %53
"_poco cresc:" z [d=fd'][dfd'][ege'] [dfd'][cec'][Bdb][Aca] | [Bdb]3 !fermata![Aca] || %55
[K:G][M:3/4]"^Dolce."!8va(! !arpeggio![bd'g'b']2 !arpeggio![gbd'g']2 !arpeggio![eg^ae']2!8va)! | %56
 !arpeggio![dgbd']7/2 [ee']/ [dd']2 | %57
!8va(! !arpeggio![bd'g'b']2 !arpeggio![gbd'g']2 !arpeggio![eg^ae']2!8va)! | %58
 !arpeggio![dgbd']7/2 [ee']/ [dd']2 |!<(! (3Bc^c{de} (3dcd (3!tenuto!.b!tenuto!.a!tenuto!.g!<)! | %60
{fga} !^!g4 f2 |!p!!<(! (3E=F^F (3GBc!<)!{cd} (3.e.d.c | c4 B2 | %63
!<(! (3(EF^G (3AB!<)!c) (3^df3/2e/ | e4 d2 | %65
!f! (3[c'_e'][ac'][fa] (3[_ef][ce][Ac] (3B[DFB]3/2[I:staff +1][CA]/ | %66
!p!!8va(![I:staff -1] !arpeggio![bd'g'b']2 !arpeggio![gbd'g']2 !arpeggio![eg^ae']2!8va)! | %67
 !arpeggio![dgbd']7/2 [ee']/ [dd']2 |!pp! !arpeggio![Bdgb]2 !arpeggio![GBdg]2 !arpeggio![EG^Ae]2 | %69
 !arpeggio![DFAd]7/2 [Ee]/ !arpeggio![DFAd]2 | %70
!f!"_lento cres:" B2- (3BG[CE] (3[B,D][I:staff +1][G,B,]G, |[I:staff -1] x4!p! !arpeggio![Gcg]2 | %72
 !arpeggio![Bdgb]4!pp!!8va(! !arpeggio![gc'g']2 | !arpeggio![bd'g'b']2!8va)!"_Fine" z4 |] %74
V:4
!ped! !arpeggio![GBdg]4!ped-up!!ped! !arpeggio![CEAc]4!ped-up! | %1
!ped! !arpeggio!!fermata![D^FA]4- [DFA]2!ped-up! z2 |[K:bass] G,2 A,B, C(3C/D/C/ B,A, | %3
 D,4 !>!E,7/2 E,/ | ^F,4 G,7/2 G,/ |!ped! [D,,D,]8 | %6
[K:treble] !arpeggio![d^fa]4 !arpeggio![dgb]2!ped-up! !arpeggio![d=eg]2 | %7
!ped! !arpeggio![d^fa]4- [dfa]2!ped-up!!ped! z2 | %8
[K:bass] G,2!ped-up! A,B,!ped! C(3C/D/C/ B,!ped-up!!ped!A, | D4!ped-up!!ped! G,4 | %10
!ped! z A,B,C!ped-up!!ped! C(3C/D/C/!ped-up! B,A, | %11
!ped! B, z[K:treble] B2 A2!ped-up!!ped! [Dc]2!ped-up! | %12
[K:bass] G,2 A,!ped-up!!ped!B, C(3C/D/C/!ped-up!!ped! B,A, | D4!ped! G,4!ped-up! | %14
!ped! z A,!ped-up!B,!ped-up!!ped!C C(3C/D/C/!ped-up!!ped! B,A, | G,2 x4 z2 | %16
!ped! E,,2 [G,B,E]2!ped-up!!ped! B,,,2!ped-up! [F,B,D]2 | %17
!ped! C,,2 [E,G,C]2!ped-up!!ped! D,,2 [D,^F,A,]2!ped-up! | %18
!ped! G,,2 G,2!ped-up!!ped! C,,2 [E,G,]2!ped-up! | %19
!ped! D,,2 D,2!ped-up!!ped! B,,,2 [B,DG]2!ped-up! | %20
!ped! E,,2 [G,B,E]2!ped-up!!ped! B,,,2 [F,B,D]2!ped-up! | %21
!ped! C,,2 [E,G,C]2!ped-up!!ped! D,,2 [D,^F,A,]2!ped-up! | G,,,2 G,,2 C,,,2 C,,2 | D,,,2 D,,2 || %24
[K:G][M:3/4]!ped! (3(G,,A,D (3GDB, (3G^C^A,) | x2!ped-up!!ped! (3(G,,A,D (3GDB, (3GDB,)!ped-up! | %26
!ped! (3G,,(A,D (3GDB, (3G^C^A,)!ped-up! |!ped! (3(G,,A,D (3GDB, (3GDB,)!ped-up! | %28
!ped! (3(G,,A,D (3GDB, (3GDB,)!ped-up! |!ped! (3[A,,,A,,](CD (3FDC (3F)DC!ped-up! | %30
!ped! (3(D,,CD (3FD)C F2!ped-up! | (3(G,,B,D G) z z2 | %32
!ped! (3[G,,,G,,](A,D (3GDB,!ped-up! (3G^C^A,) |!ped! (3G,,A,(D (3GDB, (3GDB,)!ped-up! | %34
!ped! (3(E,,A,D (3GDB, (3GEB,)!ped-up! |!ped! (3B,,(F,B, (3^DB,F, (3DB,)F,!ped-up! | %36
!ped! (3[=D,,=D,](CD (3FDC (3FDC)!ped-up! |!ped! (3[D,,D,](_B,D[K:treble] (3G_Bd g2)!ped-up! | %38
[K:bass]!ped! (3(D,,A,C[K:treble] (3DFA !fermata!d2)!ped-up! || %39
[K:Bb][M:4/4][K:bass]!ped! G,2 A,B,!ped-up!!ped! C(3C/D/C/!ped-up! B,A, | %40
!ped! D4!ped-up!!ped! G,4!ped-up! |!ped! z A,B,C!ped-up!!ped! C(3C/D/C/ B,A,!ped-up! | %42
!ped! B, z[K:treble] B2 A2 [Dc]2!ped-up! |[K:bass]!ped! G,2 A,B,!ped-up!!ped! C(3C/D/C/ B,A, | %44
!ped! D4!ped-up!!ped! G,4!ped-up! |!ped! z A,B,C!ped-up!!ped! C(3C/D/C/ B,A,!ped-up! | %46
!ped! G,2 x4 z2!ped-up! |!ped! [E,,E,]2 x2!ped-up!!ped! [B,,,B,,]2!ped-up! x2 | %48
!ped! [E,G,]4!ped-up!!ped! [^F,A,]4!ped-up! |!ped! G,,2 [=B,FG]2!ped-up!!ped! C,2 [CEG]2!ped-up! | %50
!ped! D,2 [^F,CD]2!ped-up!!ped! G,,2 [G,B,D]2!ped-up! || %51
!ped! [E,,E,]2 x2!ped-up!!ped! [B,,,B,,]2 x2!ped-up! |!ped! [E,G,]4!ped-up!!ped! [^F,A,]4!ped-up! | %53
!ped! G,,2 [=B,FG]2!ped-up!!ped! C,2 [CEG]2!ped-up! |!ped! D,,D !^!D2 || x4!ped-up! %55
[K:G][M:3/4]!ped! (3(G,,A,D (3GDB,!ped-up! (3G^C^A,) |!ped! (3(G,,A,D (3GDB, (3GDB,)!ped-up! | %57
!ped! (3(G,,A,D (3GDB, (3G^C^A,)!ped-up! |!ped! (3(G,,A,D (3GDB, (3GDB,)!ped-up! | %59
!ped! (3G,,A,D (3GDB, (3GDB,!ped-up! |!ped! (3B,,(A,B, (3^DB,A, (3DB,A,)!ped-up! | %61
!ped! (3(C,,G,C (3ECG, (3ECG,)!ped-up! |!ped! (3(E,,D=F) (3(^G,DE) (3(E,DE)!ped-up! | %63
!ped! (3(G,,A,D) (3(GDB,) (3(GDB,)!ped-up! | (3(D,G,B, (3DB,G, (3GDB,) | %65
 (3D,,A,C _E2 (3D,,!fermata!D,[K:treble] x |!ped! ([B,G]2 x2 B2)!ped-up! | %67
!ped! (3(G,DF (3cFD)!ped-up! c2 |[K:bass]!ped! (3(G,,D,G, (3B,G,)D, ^C2!ped-up! | %69
[K:bass]!ped! (3G,,D,F, (3CF,D, C2!ped-up! |!ped! (3G,,D,G, (3:2:2.B,2 z (3:2:2z2 [E,G,]!ped-up! | %71
!ped! [G,B,]4!ped-up! !arpeggio![G,E]2 | %72
!ped! !arpeggio![G,DG]4[K:treble] !arpeggio![G_e]2!ped-up! | %73
!ped! !arpeggio![Gdg]2[K:bass]{/G,,} G,,,4!ped-up! |] %74
V:5
 x8 | x8 |[K:bass] G,,2 A,,B,, C,(3C,/D,/C,/ B,,A,, | x8 | ^F,,4 G,,7/2 G,,/ | x8 |[K:treble] x8 | %7
 x8 |[K:bass] G,,2 x2 G,,2 x2 | G,,2 x2 E,,2 x2 | C,,2 x2 C,,2 x2 | G,,2[K:treble] x6 | %12
[K:bass] G,,2 x2 G,,2 x2 | G,,2 x2 E,,2 x2 | C,,2 x2 C,,2 x2 | G,,2 x6 | x8 | x8 | x8 | x8 | x8 | %21
 x8 | x8 | x4 ||[K:G][M:3/4] x6 | x6 | x6 | x6 | x6 | x6 | x6 | x6 | x6 | x6 | x6 | x6 | x6 | %37
 x2[K:treble] x4 |[K:bass] x2[K:treble] x4 ||[K:Bb][M:4/4][K:bass] G,,2 x2 G,,2 x2 | %40
 G,,2 x2 E,,2 x2 | C,,2 x2 C,,2 x2 | G,,2[K:treble] x6 |[K:bass] G,,2 x2 G,,2 x2 | %44
 G,,2 x2 E,,2 x2 | C,,2 x2 C,,2 x2 | G,,2 x6 | x8 | [C,,C,]2 x2 [D,,D,]2 x2 | x8 | x8 || x8 | %52
 [C,,C,]2 x2 [D,,D,]2 x2 | x8 | D,, x3 ||[K:G][M:3/4] x6 | x6 | x6 | x6 | x6 | x6 | x6 | x6 | x6 | %64
 x6 | x4 (3x D,[K:treble] x | (3G,DG (3BGD x2 | x6 |[K:bass] x6 |[K:bass] x6 | x6 | [G,,D,]4 x2 | %72
 x4[K:treble] x2 | x2[K:bass] x4 |] %74
V:6
 x8 | x8 | x8 | x8 | x8 | x8 |!8va(! x8 | x8!8va)! | x8 | x8 | x8 | x2 g4 x2 | x8 | x8 | x8 | %15
 x2 !arpeggio![GB]2 !arpeggio![GBd]2 x2 | G4 F4 | E4 D4 | x8 | x8 | G4 F4 | E4 D4 |[K:bass] x8 | %23
 x4 ||[K:G][M:3/4][K:treble]!8va(! x6!8va)! | x6 |!8va(! x6!8va)! | x6 | x6 | x6 | x6 | %31
 x8/3!8va(! x10/3 | x6!8va)! | x6 |!8va(! x6!8va)! | x6 | x2!8va(! x4 | x2!8va)! x4 | %38
!8va(! x6!8va)! ||[K:Bb][M:4/4] x8 | x2 [GBd]2 x2 [Be]2 | x8 | x2 g4 x2 | x8 | x2 [GBd]2 x2 [Be]2 | %45
 x8 | x2 !arpeggio![GB]2 !arpeggio![GBd]2 x2 | [G,B,EG]4 [F,B,DF]4 | [CE]4 D4 | x8 | x8 || %51
 [G,B,EG]4 [F,B,DF]4 | [CE]4 D4 | x8 | x4 ||[K:G][M:3/4]!8va(! x6!8va)! | x6 |!8va(! x6!8va)! | %58
 x6 | x6 | x6 | x6 | x6 | x6 | x6 | x6 |!8va(! x6!8va)! | x6 | x6 | x6 | x6 | x6 | x4!8va(! x2 | %73
 x2!8va)! x4 |] %74
V:7
 x8 | x8 | x8 | x8 | x8 | x8 |!8va(! x8 | x8!8va)! | x8 | x8 | x8 | x8 | x8 | x8 | x8 | x8 | x8 | %17
 x8 | x8 | x8 | x8 | x8 |[K:bass] x8 | x4 ||[K:G][M:3/4][K:treble]!8va(! x6!8va)! | x6 | %26
!8va(! x6!8va)! | x6 | x6 | x6 | x6 | x8/3!8va(! x10/3 | x6!8va)! | x6 |!8va(! x6!8va)! | x6 | %36
 x2!8va(! x4 | x2!8va)! x4 |!8va(! x6!8va)! ||[K:Bb][M:4/4] x8 | x8 | x8 | x8 | x8 | x8 | x8 | x8 | %47
 x2 [GBeg]2 x2 [FBdf]2 | x2 [EGce]2 x2 [^FAd^f]2 | x8 | x8 || x2 [GBeg]2 x2 [FBdf]2 | %52
 x2 [EGce]2 x2 [^FAd^f]2 | x8 | x4 ||[K:G][M:3/4]!8va(! x6!8va)! | x6 |!8va(! x6!8va)! | x6 | x6 | %60
 x6 | x6 | x6 | x6 | x6 | x6 |!8va(! x6!8va)! | x6 | x6 | x6 | x6 | x6 | x4!8va(! x2 | %73
 x2!8va)! x4 |] %74

